X: 17871
T: Horse Keane's
R: hornpipe
M: 4/4
K: Gmajor
dc|:BcAB GABd|eEED EGGE|DEGA BDdB|BAAB cAdc|
BGAF GABd|eEEF GAGE|DE (3GAB ADFA|1 G2G2 Gddc:|2 G2G2 G2 (3Bcd||
ecef gage|deed BdGB|cGeG dBGA|BAAB cA(d2|
d)BAB GABd|eEEF GAGE|DE (3GAB ADFA|1 G2G2G2 (3Bcd:|2 G2G2G4||

